X: 43484
T: Yellow Tinker, The
R: reel
M: 4/4
K: Gmixolydian
|:DG (3GGG DEFE|DG (3GGG BcAF|DGGF D2CD|F3A c2AF|
DGGF D2CD|DG (3GGG BcAF|DGGF D2CD|F3A c2Ac|
dG (3GGG dGcA|dG (3GGG d2cA|dGGA dcAG|F3A c2Ac|
dG (3GGG dGcA|dG (3GGG d2cA|d3e fefd|BcAF CFAF:|

